X:1
T:O Maria Dei genitrix
T:Ignatio Donati
T:Source : Primo libro di Motetti a voce sola---Venetia---A.Vincenti---1634. Editor : André Vierendeels (06/01/17).
T: 
T:O Maria Dei genitrix
T:©
T:©
T:©
T:©
T:©
T:©
T:©
T:©
C:Ignatio Donati
Z:©
%%score 1 2
L:1/8
Q:1/4=106
M:4/4
K:F
V:1 treble nm="Soprano" snm="S"
V:2 bass nm="MusicXML Part"
V:1
 z4 d4- | d2 A2 A4 | A4 z2 dA | BAcB A3 A | G4 B2 c2 | d2 B2 c2 d2 | %6
w: O|_ Ma- ri-|a, O Ma-|ri- a De- i ge- ni-|trix, ge- ni-|to- ri Vir- go|
 _e/d/c/d/ e/B/c/d/ e/G/A/B/ c/d/e/c/ | d8 | c4 G2 A2 | B/A/G/F/ E/F/G/A/ B/F/G/A/ B/c/d/G/ | %10
w: fe- * * * * * * * * * * * * * * *||lix, si non|o- * * * * * * * * * * * * * * *|
 A4 B2 c2 | d/A/B/c/ d/c/B/c/ d/F/G/A/ B/c/d/B/ | c4 z2 cd | _ee e4 d>c | c4 B4 | z4 A4- | %16
w: ras, si non|pe- * * * * * * * * * * * * * * *|tis, qui nos|e- ru- et à pec-|ca- tis,|O|
 A2 E2 E4 | E2 AE FEGF | E3 E D4 | z2 FG AGGF | GGGA BAAG | AAAB cc c2- | c2 GG G4 | F4 z2 Bc | %24
w: _ Ma- ri-|a, O Ma- ri- a De- i|ge- ni- trix,|ge- ni- to- ri Vir- go|fe- lix si non o- ras, si non|pe- tis, quis nos e- ru- et|_ à pec- ca-|tis, ge- ni-|
 dccB cccd | _eddc ddde | ff f4 ed | e4 d4 | z2 Bc dd d2- | d2 AA A4 | G8 | z4 A2 B2 | %32
w: to- ri Vir- go fe- lix si non|o- ras, si non pe- tis, quis nos|e- ru- et à pec-|ca- tis,|quis nos e- ru- it|_ à pec- ca-|tis,|E- ia|
 c2 A2 B2 A2 | G/F/E/F/ G/A/B/G/ c/B/A/G/ B/A/G/F/ | G8 | F4 c2 d2 | _e2 c2 d2 c2 | %37
w: er- go fons a-|mo- * * * * * * * * * * * * * * *||ris, Ie- su|Chri- sti vim ar-|
 B/A/G/F/ G/A/B/c/ d/B/c/d/ e/d/c/B/ | c/B/A/B/ c/d/e/c/ f/e/d/c/ _e/d/c/B/ | c8 | B8 | %41
w: do- * * * * * * * * * * * * * * *|||ris,|
 f2 e2 d3 c | c2 d2 _e3 e | d4 c2 B>c | A2 A2 f2 _e>f | d2 d2 c2 _e2 | d6 d2 | c8 | z4 F4- | %49
w: ve- rum ma- nus|tu- ae gra- ti-|ae do- na _|no- bis, do na _|no- bis at- que|glo- ri-|ae|ut|
 F2 G2 A2 B2 | G2 F2 G4 | G2- G/4 C/4D/4E/4F/4G/4A/4B/4 c4- | c4 B4 | A4 G4- | G2 EF G4 | %55
w: _ in ho- ra|mor- tis no-|strae _ a _ _ _ _ _ _ _|_ _||* e- ru- a-|
 G4 F/E/F/G/ A/B/^c/d/ | e/A/B/c/ d/e/f/d/ e/f/g/e/ f/e/f/d/ | e8 | d4 B4- | B2 c2 d2 _e2 | %60
w: mur ho- * * * * * * *|||ste, ut|_ in ho- ra|
 c2 B2 c4 | c2- c/4 F/4G/4A/4B/4c/4d/4e/4 f4 | g4 f4 | e4 d4- | d2 AB c4 | c4 B/A/B/c/ d/A/B/c/ | %66
w: mor- tis no|strae _ a _ _ _ _ _ _ _|_ ma-|li- gno|_ e- ru- a-|mur ho- * * * * * * *|
 d/c/B/A/ c/B/A/G/ A/F/G/A/ B/c/d/G/ | A/d/c/A/ B/A/B/G/ A4 | G8 |] %69
w: ||ste.|
V:2
"^BC" G,8 |"^#" D,8 |"^#" D,8 |"^#" D,2 C,2 D,4 |"^-natural""^b" G,,4 G,,4 | G,4 F,4 |"^b" C,8 | %7
"^-natural" G,8 | C,4 C,4 | G,,8 |"^#" D,6 C,2 | B,,8 | F,,4 F,,4 |"^b" C,4 D,3 _E, | F,4 B,,4 | %15
 D,8 |"^#" A,,8 |"^#" A,,4 A,,2 G,,2 |"^#" A,,4 D,4 |"^-natural" D,8 | C,4 G,,4 | D,4 A,,4 | C,8 | %23
 F,,4 G,,4 | B,,4 F,4 |"^b" C,4 G,,4 | D,4 B,,4 |"^#""^#" A,,4 D,4 | G,,4 B,,4 |"^#" C,4 D,4 | %30
 G,,8 | F,,8 | F,,4 B,,4 | C,8 | C,8 | F,,4 F,,4 | C,4 B,,2 A,,2 | G,,8 | E,,8 | F,,8 | B,,8 | %41
 B,,2 C,2 D,2 _E,2 |"^b" F,2 D,2 C,4 |"^-natural""^b" G,4 C,4 |"^-natural" D,4 D,2 C,2 | %45
"^b""^b" B,,4 C,4 |"^-natural" G,8 | C,4 C,4 | F,2 E,2 D,2 C,2 | B,,4 A,,2 G,,2 | %50
"^6" B,,2 D,2 C,4 | C,6 B,,A,, |"^#""^3 4" D,8 |"^#" D,4 =B,,4 | C,4- C,E,,F,,G,, | %55
"^#""^3 4" A,,8 |"^#" A,,8 |"^#""^3 4 3" A,,8 |"^-natural" D,4 G,2 F,2 |"^b" _E,4 D,2 C,2 | %60
"^6" _E,2 G,2 F,4 | F,6 E,D, |"^-natural""^4" G,8 |"^#" G,4 D,4 | F,4- F,A,,B,,C, |"^#" D,8 | %66
"^#" D,8 |"^#" D,8 | G,,8 |] %69

